!!!COM: Beethoven
!!!OTL: Six Variations on an Original Theme
!!!Variation: Variation 4 a
**function	**harm	**kern	**kern
*M2/4	*M2/4	*staff1	*staff2
*D:	*D:	*clefG2	*clefF4
*tb96	*	*k[f#c#]	*k[f#c#]
*	*	*M2/4	*M2/4
*	*	*D:	*D:
=-	=-	=	=
*	*	*M2/4	*M2/4
2T	2I	(8eL 8a	(8CC#L
.	.	8dJ) 8f#	8DDJ)
.	.	(8eL 8a	(8CC#L
.	.	8dJ) 8f#	8DDJ)
=	=	=66	=66
2T	2I	(16eLL 16a	(16CC#LL
.	.	16d) 16f#	16DD)
.	.	(16e 16a	(16CC#
.	.	16dJJ) 16f#	16DDJJ)
.	.	(16eLL 16a	(16CC#LL
.	.	16dJJ) 16f#	16DDJJ)
.	.	24fff#LL	8r
.	.	24eee	.
.	.	24dddJJ	.
=	=	=67	=67
2T	2V7	24ccc#LL	8AL 8e 8g
.	.	24bb	.
.	.	24aaJ	.
.	.	24ggL	8AJ 8e 8g
.	.	24ff#	.
.	.	24eeJJ	.
.	.	24ddLL	8AL 8e 8g
.	.	24cc#	.
.	.	24bJ	.
.	.	24aL	8AJ 8e 8g
.	.	24b	.
.	.	24cc#JJ	.
=	=	=68	=68
8T	8I	8dd'L	8d'L 8f#'
8T	8V7	8cc#'J 8ee'	8A'J 8e' 8g'
4T	4I	8dd' 8ff#'	8d' 8f#'
.	.	8r	8r
=	=	=69	=69
2T	2I	(8eL 8a	(8CC#L
.	.	8dJ) 8f#	8DDJ)
.	.	(8eL 8a	(8CC#L
.	.	8dJ) 8f#	8DDJ)
=	=	=70	=70
2T	2I	(16eLL 16a	(16CC#LL
.	.	16d) 16f#	16DD)
.	.	(16e 16a	(16CC#
.	.	16dJJ) 16f#	16DDJJ)
.	.	(16eLL 16a	(16CC#LL
.	.	16dJJ) 16f#	16DDJJ)
.	.	24gggLL	8r
.	.	24fff#	.
.	.	24eeeJJ	.
=	=	=71	=71
4.T	4.I	24dddLL	8dL 8f#
.	.	24ccc#	.
.	.	24bbJ	.
.	.	32aaLL	8dJ 8f#
.	.	32gg	.
.	.	32ff#	.
.	.	32eeJJJ	.
.	.	24ddLL	8dL 8f#
.	.	24cc#	.
.	.	24bJ	.
8T	8V7/vi	24a#L	8F#J 8c# 8e
.	.	24ff#	.
.	.	24a#JJ	.
=	=	=72	=72
2T	2vi	8b'L	8B'L 8d'
.	.	8b'J	8B'J 8d'
.	.	8b'	8B' 8d'
.	.	8r	8r
==	==	=73:|!|:	=73:|!|:
*-	*-	*-	*-
